Hatter-kde/actions/24/view-task-child.svg

<svg xmlns="http://www.w3.org/2000/svg" viewBox="0 0 24 24">
  <defs id="defs3051">
    <style type="text/css" id="current-color-scheme">
      .ColorScheme-Text {
        color:#363636;
      }
      </style>
  </defs>
 <path style="fill:currentColor;fill-opacity:1;stroke:none" 
     d="M 4 4 L 4 20 L 13 20 L 13 19 L 5 19 L 5 8 L 19 8 L 19 13 L 20 13 L 20 4 L 18 4 L 18 7 L 16 7 L 16 4 L 8 4 L 8 7 L 6 7 L 6 4 L 4 4 z M 15.292969 10 L 10.701172 14.591797 L 9.5546875 13.445312 L 8.8476562 14.152344 L 10.693359 16 L 10.699219 15.992188 L 10.707031 16 L 16 10.707031 L 15.292969 10 z M 14 14 L 14 15 L 14 20 L 20 20 L 20 15 L 20 14 L 19 14 L 19 15 L 18 15 L 18 14 L 16 14 L 16 15 L 15 15 L 15 14 L 14 14 z M 15 16 L 19 16 L 19 19 L 15 19 L 15 16 z "
     class="ColorScheme-Text"
     />
</svg>

<?xml version="1.0" encoding="UTF-8"?>
<svg viewBox="0 0 24 24" xmlns="http://www.w3.org/2000/svg">
 <defs id="defs3051">
  <style id="current-color-scheme" type="text/css">.ColorScheme-Text {
        color:#363636;
      }</style>
 </defs>
 <path class="ColorScheme-Text" d="m4 4v16h9v-1h-8v-11h14v5h1v-9h-2v3h-2v-3h-8v3h-2v-3h-2zm11.293 6-4.5918 4.5918-1.1465-1.1465-0.70703 0.70703 1.8457 1.8477 0.00586-0.007812 0.007812 0.007812 5.293-5.293-0.70703-0.70703zm-1.293 4v1 5h6v-5-1h-1v1h-1v-1h-2v1h-1v-1h-1zm1 2h4v3h-4v-3z" fill="currentColor"/>
</svg>
